X:67
T:Mug of Brown Ale
M:6/8
L:1/8
R:Jig
K:Ador
| "Am"eAA fAA | gfg age | "G"dBA G2A | B3 dBd |
"Am"eAA fAA | gfg age | "G"dBB gBB |1"G"BAG Agf:|2 "G"BAG "Am"A2 ||
|:d| "Am"efg a3 | aba age | "G"dBd g3  | gag ged|
"Am"efg a3 | aba age | "G"dBB gBB | BAG "Am"A2 :|
